assets/images/book-1-x/lincls-sigmoid.svg

<?xml version="1.0" encoding="utf-8" standalone="no"?>
<!DOCTYPE svg PUBLIC "-//W3C//DTD SVG 1.1//EN"
  "http://www.w3.org/Graphics/SVG/1.1/DTD/svg11.dtd">
<!-- Created with matplotlib (https://matplotlib.org/) -->
<svg height="358.56pt" version="1.1" viewBox="0 0 360 358.56" width="360pt" xmlns="http://www.w3.org/2000/svg" xmlns:xlink="http://www.w3.org/1999/xlink">
 <defs>
  <style type="text/css">
*{stroke-linecap:butt;stroke-linejoin:round;}
  </style>
 </defs>
 <g id="figure_1">
  <g id="patch_1">
   <path d="M 0 358.56 
L 360 358.56 
L 360 0 
L 0 0 
z
" style="fill:#ffffff;"/>
  </g>
  <g id="axes_1">
   <g id="patch_2">
    <path d="M 45 319.1184 
L 324 319.1184 
L 324 43.0272 
L 45 43.0272 
z
" style="fill:#ffffff;"/>
   </g>
   <g id="matplotlib.axis_1">
    <g id="xtick_1">
     <g id="line2d_1">
      <defs>
       <path d="M 0 0 
L 0 3.5 
" id="m0f1ad97792" style="stroke:#000000;stroke-width:0.8;"/>
      </defs>
      <g>
       <use style="stroke:#000000;stroke-width:0.8;" x="83.045455" xlink:href="#m0f1ad97792" y="319.1184"/>
      </g>
     </g>
     <g id="text_1">
      <!-- −4 -->
      <defs>
       <path d="M 10.59375 35.5 
L 73.1875 35.5 
L 73.1875 27.203125 
L 10.59375 27.203125 
z
" id="DejaVuSans-8722"/>
       <path d="M 37.796875 64.3125 
L 12.890625 25.390625 
L 37.796875 25.390625 
z
M 35.203125 72.90625 
L 47.609375 72.90625 
L 47.609375 25.390625 
L 58.015625 25.390625 
L 58.015625 17.1875 
L 47.609375 17.1875 
L 47.609375 0 
L 37.796875 0 
L 37.796875 17.1875 
L 4.890625 17.1875 
L 4.890625 26.703125 
z
" id="DejaVuSans-52"/>
      </defs>
      <g transform="translate(75.674361 333.716838)scale(0.1 -0.1)">
       <use xlink:href="#DejaVuSans-8722"/>
       <use x="83.789062" xlink:href="#DejaVuSans-52"/>
      </g>
     </g>
    </g>
    <g id="xtick_2">
     <g id="line2d_2">
      <g>
       <use style="stroke:#000000;stroke-width:0.8;" x="133.772727" xlink:href="#m0f1ad97792" y="319.1184"/>
      </g>
     </g>
     <g id="text_2">
      <!-- −2 -->
      <defs>
       <path d="M 19.1875 8.296875 
L 53.609375 8.296875 
L 53.609375 0 
L 7.328125 0 
L 7.328125 8.296875 
Q 12.9375 14.109375 22.625 23.890625 
Q 32.328125 33.6875 34.8125 36.53125 
Q 39.546875 41.84375 41.421875 45.53125 
Q 43.3125 49.21875 43.3125 52.78125 
Q 43.3125 58.59375 39.234375 62.25 
Q 35.15625 65.921875 28.609375 65.921875 
Q 23.96875 65.921875 18.8125 64.3125 
Q 13.671875 62.703125 7.8125 59.421875 
L 7.8125 69.390625 
Q 13.765625 71.78125 18.9375 73 
Q 24.125 74.21875 28.421875 74.21875 
Q 39.75 74.21875 46.484375 68.546875 
Q 53.21875 62.890625 53.21875 53.421875 
Q 53.21875 48.921875 51.53125 44.890625 
Q 49.859375 40.875 45.40625 35.40625 
Q 44.1875 33.984375 37.640625 27.21875 
Q 31.109375 20.453125 19.1875 8.296875 
z
" id="DejaVuSans-50"/>
      </defs>
      <g transform="translate(126.401634 333.716838)scale(0.1 -0.1)">
       <use xlink:href="#DejaVuSans-8722"/>
       <use x="83.789062" xlink:href="#DejaVuSans-50"/>
      </g>
     </g>
    </g>
    <g id="xtick_3">
     <g id="line2d_3">
      <g>
       <use style="stroke:#000000;stroke-width:0.8;" x="184.5" xlink:href="#m0f1ad97792" y="319.1184"/>
      </g>
     </g>
     <g id="text_3">
      <!-- 0 -->
      <defs>
       <path d="M 31.78125 66.40625 
Q 24.171875 66.40625 20.328125 58.90625 
Q 16.5 51.421875 16.5 36.375 
Q 16.5 21.390625 20.328125 13.890625 
Q 24.171875 6.390625 31.78125 6.390625 
Q 39.453125 6.390625 43.28125 13.890625 
Q 47.125 21.390625 47.125 36.375 
Q 47.125 51.421875 43.28125 58.90625 
Q 39.453125 66.40625 31.78125 66.40625 
z
M 31.78125 74.21875 
Q 44.046875 74.21875 50.515625 64.515625 
Q 56.984375 54.828125 56.984375 36.375 
Q 56.984375 17.96875 50.515625 8.265625 
Q 44.046875 -1.421875 31.78125 -1.421875 
Q 19.53125 -1.421875 13.0625 8.265625 
Q 6.59375 17.96875 6.59375 36.375 
Q 6.59375 54.828125 13.0625 64.515625 
Q 19.53125 74.21875 31.78125 74.21875 
z
" id="DejaVuSans-48"/>
      </defs>
      <g transform="translate(181.31875 333.716838)scale(0.1 -0.1)">
       <use xlink:href="#DejaVuSans-48"/>
      </g>
     </g>
    </g>
    <g id="xtick_4">
     <g id="line2d_4">
      <g>
       <use style="stroke:#000000;stroke-width:0.8;" x="235.227273" xlink:href="#m0f1ad97792" y="319.1184"/>
      </g>
     </g>
     <g id="text_4">
      <!-- 2 -->
      <g transform="translate(232.046023 333.716838)scale(0.1 -0.1)">
       <use xlink:href="#DejaVuSans-50"/>
      </g>
     </g>
    </g>
    <g id="xtick_5">
     <g id="line2d_5">
      <g>
       <use style="stroke:#000000;stroke-width:0.8;" x="285.954545" xlink:href="#m0f1ad97792" y="319.1184"/>
      </g>
     </g>
     <g id="text_5">
      <!-- 4 -->
      <g transform="translate(282.773295 333.716838)scale(0.1 -0.1)">
       <use xlink:href="#DejaVuSans-52"/>
      </g>
     </g>
    </g>
    <g id="text_6">
     <!-- x -->
     <defs>
      <path d="M 54.890625 54.6875 
L 35.109375 28.078125 
L 55.90625 0 
L 45.3125 0 
L 29.390625 21.484375 
L 13.484375 0 
L 2.875 0 
L 24.125 28.609375 
L 4.6875 54.6875 
L 15.28125 54.6875 
L 29.78125 35.203125 
L 44.28125 54.6875 
z
" id="DejaVuSans-120"/>
     </defs>
     <g transform="translate(181.540625 347.394963)scale(0.1 -0.1)">
      <use xlink:href="#DejaVuSans-120"/>
     </g>
    </g>
   </g>
   <g id="matplotlib.axis_2">
    <g id="ytick_1">
     <g id="line2d_6">
      <defs>
       <path d="M 0 0 
L -3.5 0 
" id="m18cdd60ba6" style="stroke:#000000;stroke-width:0.8;"/>
      </defs>
      <g>
       <use style="stroke:#000000;stroke-width:0.8;" x="45" xlink:href="#m18cdd60ba6" y="308.271443"/>
      </g>
     </g>
     <g id="text_7">
      <!-- 0.0 -->
      <defs>
       <path d="M 10.6875 12.40625 
L 21 12.40625 
L 21 0 
L 10.6875 0 
z
" id="DejaVuSans-46"/>
      </defs>
      <g transform="translate(22.096875 312.070662)scale(0.1 -0.1)">
       <use xlink:href="#DejaVuSans-48"/>
       <use x="63.623047" xlink:href="#DejaVuSans-46"/>
       <use x="95.410156" xlink:href="#DejaVuSans-48"/>
      </g>
     </g>
    </g>
    <g id="ytick_2">
     <g id="line2d_7">
      <g>
       <use style="stroke:#000000;stroke-width:0.8;" x="45" xlink:href="#m18cdd60ba6" y="257.391986"/>
      </g>
     </g>
     <g id="text_8">
      <!-- 0.2 -->
      <g transform="translate(22.096875 261.191205)scale(0.1 -0.1)">
       <use xlink:href="#DejaVuSans-48"/>
       <use x="63.623047" xlink:href="#DejaVuSans-46"/>
       <use x="95.410156" xlink:href="#DejaVuSans-50"/>
      </g>
     </g>
    </g>
    <g id="ytick_3">
     <g id="line2d_8">
      <g>
       <use style="stroke:#000000;stroke-width:0.8;" x="45" xlink:href="#m18cdd60ba6" y="206.512529"/>
      </g>
     </g>
     <g id="text_9">
      <!-- 0.4 -->
      <g transform="translate(22.096875 210.311747)scale(0.1 -0.1)">
       <use xlink:href="#DejaVuSans-48"/>
       <use x="63.623047" xlink:href="#DejaVuSans-46"/>
       <use x="95.410156" xlink:href="#DejaVuSans-52"/>
      </g>
     </g>
    </g>
    <g id="ytick_4">
     <g id="line2d_9">
      <g>
       <use style="stroke:#000000;stroke-width:0.8;" x="45" xlink:href="#m18cdd60ba6" y="155.633071"/>
      </g>
     </g>
     <g id="text_10">
      <!-- 0.6 -->
      <defs>
       <path d="M 33.015625 40.375 
Q 26.375 40.375 22.484375 35.828125 
Q 18.609375 31.296875 18.609375 23.390625 
Q 18.609375 15.53125 22.484375 10.953125 
Q 26.375 6.390625 33.015625 6.390625 
Q 39.65625 6.390625 43.53125 10.953125 
Q 47.40625 15.53125 47.40625 23.390625 
Q 47.40625 31.296875 43.53125 35.828125 
Q 39.65625 40.375 33.015625 40.375 
z
M 52.59375 71.296875 
L 52.59375 62.3125 
Q 48.875 64.0625 45.09375 64.984375 
Q 41.3125 65.921875 37.59375 65.921875 
Q 27.828125 65.921875 22.671875 59.328125 
Q 17.53125 52.734375 16.796875 39.40625 
Q 19.671875 43.65625 24.015625 45.921875 
Q 28.375 48.1875 33.59375 48.1875 
Q 44.578125 48.1875 50.953125 41.515625 
Q 57.328125 34.859375 57.328125 23.390625 
Q 57.328125 12.15625 50.6875 5.359375 
Q 44.046875 -1.421875 33.015625 -1.421875 
Q 20.359375 -1.421875 13.671875 8.265625 
Q 6.984375 17.96875 6.984375 36.375 
Q 6.984375 53.65625 15.1875 63.9375 
Q 23.390625 74.21875 37.203125 74.21875 
Q 40.921875 74.21875 44.703125 73.484375 
Q 48.484375 72.75 52.59375 71.296875 
z
" id="DejaVuSans-54"/>
      </defs>
      <g transform="translate(22.096875 159.43229)scale(0.1 -0.1)">
       <use xlink:href="#DejaVuSans-48"/>
       <use x="63.623047" xlink:href="#DejaVuSans-46"/>
       <use x="95.410156" xlink:href="#DejaVuSans-54"/>
      </g>
     </g>
    </g>
    <g id="ytick_5">
     <g id="line2d_10">
      <g>
       <use style="stroke:#000000;stroke-width:0.8;" x="45" xlink:href="#m18cdd60ba6" y="104.753614"/>
      </g>
     </g>
     <g id="text_11">
      <!-- 0.8 -->
      <defs>
       <path d="M 31.78125 34.625 
Q 24.75 34.625 20.71875 30.859375 
Q 16.703125 27.09375 16.703125 20.515625 
Q 16.703125 13.921875 20.71875 10.15625 
Q 24.75 6.390625 31.78125 6.390625 
Q 38.8125 6.390625 42.859375 10.171875 
Q 46.921875 13.96875 46.921875 20.515625 
Q 46.921875 27.09375 42.890625 30.859375 
Q 38.875 34.625 31.78125 34.625 
z
M 21.921875 38.8125 
Q 15.578125 40.375 12.03125 44.71875 
Q 8.5 49.078125 8.5 55.328125 
Q 8.5 64.0625 14.71875 69.140625 
Q 20.953125 74.21875 31.78125 74.21875 
Q 42.671875 74.21875 48.875 69.140625 
Q 55.078125 64.0625 55.078125 55.328125 
Q 55.078125 49.078125 51.53125 44.71875 
Q 48 40.375 41.703125 38.8125 
Q 48.828125 37.15625 52.796875 32.3125 
Q 56.78125 27.484375 56.78125 20.515625 
Q 56.78125 9.90625 50.3125 4.234375 
Q 43.84375 -1.421875 31.78125 -1.421875 
Q 19.734375 -1.421875 13.25 4.234375 
Q 6.78125 9.90625 6.78125 20.515625 
Q 6.78125 27.484375 10.78125 32.3125 
Q 14.796875 37.15625 21.921875 38.8125 
z
M 18.3125 54.390625 
Q 18.3125 48.734375 21.84375 45.5625 
Q 25.390625 42.390625 31.78125 42.390625 
Q 38.140625 42.390625 41.71875 45.5625 
Q 45.3125 48.734375 45.3125 54.390625 
Q 45.3125 60.0625 41.71875 63.234375 
Q 38.140625 66.40625 31.78125 66.40625 
Q 25.390625 66.40625 21.84375 63.234375 
Q 18.3125 60.0625 18.3125 54.390625 
z
" id="DejaVuSans-56"/>
      </defs>
      <g transform="translate(22.096875 108.552833)scale(0.1 -0.1)">
       <use xlink:href="#DejaVuSans-48"/>
       <use x="63.623047" xlink:href="#DejaVuSans-46"/>
       <use x="95.410156" xlink:href="#DejaVuSans-56"/>
      </g>
     </g>
    </g>
    <g id="ytick_6">
     <g id="line2d_11">
      <g>
       <use style="stroke:#000000;stroke-width:0.8;" x="45" xlink:href="#m18cdd60ba6" y="53.874157"/>
      </g>
     </g>
     <g id="text_12">
      <!-- 1.0 -->
      <defs>
       <path d="M 12.40625 8.296875 
L 28.515625 8.296875 
L 28.515625 63.921875 
L 10.984375 60.40625 
L 10.984375 69.390625 
L 28.421875 72.90625 
L 38.28125 72.90625 
L 38.28125 8.296875 
L 54.390625 8.296875 
L 54.390625 0 
L 12.40625 0 
z
" id="DejaVuSans-49"/>
      </defs>
      <g transform="translate(22.096875 57.673376)scale(0.1 -0.1)">
       <use xlink:href="#DejaVuSans-49"/>
       <use x="63.623047" xlink:href="#DejaVuSans-46"/>
       <use x="95.410156" xlink:href="#DejaVuSans-48"/>
      </g>
     </g>
    </g>
    <g id="text_13">
     <!-- y -->
     <defs>
      <path d="M 32.171875 -5.078125 
Q 28.375 -14.84375 24.75 -17.8125 
Q 21.140625 -20.796875 15.09375 -20.796875 
L 7.90625 -20.796875 
L 7.90625 -13.28125 
L 13.1875 -13.28125 
Q 16.890625 -13.28125 18.9375 -11.515625 
Q 21 -9.765625 23.484375 -3.21875 
L 25.09375 0.875 
L 2.984375 54.6875 
L 12.5 54.6875 
L 29.59375 11.921875 
L 46.6875 54.6875 
L 56.203125 54.6875 
z
" id="DejaVuSans-121"/>
     </defs>
     <g transform="translate(16.017187 184.032175)rotate(-90)scale(0.1 -0.1)">
      <use xlink:href="#DejaVuSans-121"/>
     </g>
    </g>
   </g>
   <g id="line2d_12">
    <path clip-path="url(#p1ed947fc24)" d="M 57.681818 306.5688 
L 60.243802 306.389169 
L 62.805785 306.190742 
L 65.367769 305.971588 
L 67.929752 305.729584 
L 70.491736 305.462399 
L 73.053719 305.167475 
L 75.615702 304.842008 
L 78.177686 304.482929 
L 80.739669 304.08688 
L 83.301653 303.650191 
L 85.863636 303.16886 
L 88.42562 302.638527 
L 90.987603 302.054447 
L 93.549587 301.411475 
L 96.11157 300.704033 
L 98.673554 299.926095 
L 101.235537 299.071165 
L 103.797521 298.132261 
L 106.359504 297.101906 
L 108.921488 295.972117 
L 111.483471 294.734411 
L 114.045455 293.379814 
L 116.607438 291.898881 
L 119.169421 290.281736 
L 121.731405 288.518118 
L 124.293388 286.597455 
L 126.855372 284.508955 
L 129.417355 282.241715 
L 131.979339 279.784872 
L 134.541322 277.127761 
L 137.103306 274.26012 
L 139.665289 271.172309 
L 142.227273 267.855574 
L 144.789256 264.302316 
L 147.35124 260.506397 
L 149.913223 256.463453 
L 152.475207 252.171212 
L 155.03719 247.629809 
L 157.599174 242.842076 
L 160.161157 237.8138 
L 162.72314 232.553936 
L 165.285124 227.074742 
L 167.847107 221.391842 
L 170.409091 215.524186 
L 172.971074 209.493915 
L 175.533058 203.326108 
L 178.095041 197.048429 
L 180.657025 190.690668 
L 183.219008 184.284204 
L 185.780992 177.861396 
L 188.342975 171.454932 
L 190.904959 165.097171 
L 193.466942 158.819492 
L 196.028926 152.651685 
L 198.590909 146.621414 
L 201.152893 140.753758 
L 203.714876 135.070858 
L 206.27686 129.591664 
L 208.838843 124.3318 
L 211.400826 119.303524 
L 213.96281 114.515791 
L 216.524793 109.974388 
L 219.086777 105.682147 
L 221.64876 101.639203 
L 224.210744 97.843284 
L 226.772727 94.290026 
L 229.334711 90.973291 
L 231.896694 87.88548 
L 234.458678 85.017839 
L 237.020661 82.360728 
L 239.582645 79.903885 
L 242.144628 77.636645 
L 244.706612 75.548145 
L 247.268595 73.627482 
L 249.830579 71.863864 
L 252.392562 70.246719 
L 254.954545 68.765786 
L 257.516529 67.411189 
L 260.078512 66.173483 
L 262.640496 65.043694 
L 265.202479 64.013339 
L 267.764463 63.074435 
L 270.326446 62.219505 
L 272.88843 61.441567 
L 275.450413 60.734125 
L 278.012397 60.091153 
L 280.57438 59.507073 
L 283.136364 58.97674 
L 285.698347 58.495409 
L 288.260331 58.05872 
L 290.822314 57.662671 
L 293.384298 57.303592 
L 295.946281 56.978125 
L 298.508264 56.683201 
L 301.070248 56.416016 
L 303.632231 56.174012 
L 306.194215 55.954858 
L 308.756198 55.756431 
L 311.318182 55.5768 
" style="fill:none;stroke:#1f77b4;stroke-linecap:square;stroke-width:1.5;"/>
   </g>
   <g id="patch_3">
    <path d="M 45 319.1184 
L 45 43.0272 
" style="fill:none;stroke:#000000;stroke-linecap:square;stroke-linejoin:miter;stroke-width:0.8;"/>
   </g>
   <g id="patch_4">
    <path d="M 324 319.1184 
L 324 43.0272 
" style="fill:none;stroke:#000000;stroke-linecap:square;stroke-linejoin:miter;stroke-width:0.8;"/>
   </g>
   <g id="patch_5">
    <path d="M 45 319.1184 
L 324 319.1184 
" style="fill:none;stroke:#000000;stroke-linecap:square;stroke-linejoin:miter;stroke-width:0.8;"/>
   </g>
   <g id="patch_6">
    <path d="M 45 43.0272 
L 324 43.0272 
" style="fill:none;stroke:#000000;stroke-linecap:square;stroke-linejoin:miter;stroke-width:0.8;"/>
   </g>
  </g>
 </g>
 <defs>
  <clipPath id="p1ed947fc24">
   <rect height="276.0912" width="279" x="45" y="43.0272"/>
  </clipPath>
 </defs>
</svg>

<svg xmlns="http://www.w3.org/2000/svg" xmlns:xlink="http://www.w3.org/1999/xlink" height="479" viewBox="0 0 360 358.56" width="481" stroke-linecap="butt" stroke-linejoin="round"><style><![CDATA[.B{stroke:#000}.C{stroke-width:.8}.D{stroke-linecap:butt}.E{stroke-linejoin:round}]]></style><g fill="#fff"><path d="M0 358.56h360V0H0z"/><path d="M45 319.118h279V43.027H45z"/></g><defs><path d="M0 0v3.5" id="A" class="B C D E"/></defs><use x="83.045" xlink:href="#A" y="319.118" class="B C"/><defs><path d="M10.594 35.5h62.594v-8.297H10.594z" id="B"/><path d="M37.797 64.313L12.89 25.39h24.906zm-2.594 8.594H47.61V25.39h10.406v-8.203H47.61V0h-9.812v17.188H4.89v9.516z" id="C"/></defs><g transform="matrix(.1 0 0 -.1 75.674361 333.716838)"><use xlink:href="#B"/><use x="83.789" xlink:href="#C"/></g><use x="133.773" xlink:href="#A" y="319.118" class="B C"/><defs><path d="M19.188 8.297H53.61V0H7.328v8.297q5.61 5.813 15.297 15.594 9.703 9.797 12.188 12.64 4.734 5.313 6.61 9 1.89 3.688 1.89 7.25 0 5.813-4.078 9.47-4.078 3.672-10.625 3.672-4.64 0-9.797-1.61-5.14-1.61-11-4.89v9.97q5.953 2.39 11.125 3.61 5.188 1.22 9.484 1.22 11.328 0 18.063-5.672 6.734-5.656 6.734-15.125 0-4.5-1.687-8.53-1.672-4.016-6.125-9.484-1.22-1.422-7.766-8.187-6.53-6.766-18.453-18.922z" id="D"/></defs><g transform="matrix(.1 0 0 -.1 126.401634 333.716838)"><use xlink:href="#B"/><use x="83.789" xlink:href="#D"/></g><use x="184.5" xlink:href="#A" y="319.118" class="B C"/><defs><path d="M31.78 66.406q-7.61 0-11.453-7.5-3.828-7.484-3.828-22.53 0-14.984 3.828-22.484 3.844-7.5 11.453-7.5 7.672 0 11.5 7.5 3.844 7.5 3.844 22.484 0 15.047-3.844 22.53-3.828 7.5-11.5 7.5zm0 7.813q12.266 0 18.734-9.703 6.47-9.687 6.47-28.14 0-18.406-6.47-28.11-6.47-9.687-18.734-9.687-12.25 0-18.72 9.688-6.47 9.703-6.47 28.11 0 18.453 6.47 28.14 6.47 9.703 18.72 9.703z" id="E"/></defs><use xlink:href="#E" transform="matrix(.1 0 0 -.1 181.31875 333.716838)"/><use x="235.227" xlink:href="#A" y="319.118" class="B C"/><use xlink:href="#D" transform="matrix(.1 0 0 -.1 232.046023 333.716838)"/><use x="285.955" xlink:href="#A" y="319.118" class="B C"/><use xlink:href="#C" transform="matrix(.1 0 0 -.1 282.773295 333.716838)"/><defs><path d="M54.89 54.688l-19.78-26.61L55.906 0H45.313L29.39 21.484 13.484 0H2.875l21.25 28.61L4.688 54.688H15.28l14.5-19.484 14.5 19.484z" id="F"/></defs><use xlink:href="#F" transform="matrix(.1 0 0 -.1 181.540625 347.394963)"/><defs><path d="M0 0h-3.5" id="G" class="B C D E"/></defs><use x="45" xlink:href="#G" y="308.271" class="B C"/><defs><path d="M10.688 12.406H21V0H10.688z" id="H"/></defs><g transform="matrix(.1 0 0 -.1 22.096875 312.070662)"><use xlink:href="#E"/><use x="63.623" xlink:href="#H"/><use x="95.41" xlink:href="#E"/></g><use x="45" xlink:href="#G" y="257.392" class="B C"/><g transform="matrix(.1 0 0 -.1 22.096875 261.191205)"><use xlink:href="#E"/><use x="63.623" xlink:href="#H"/><use x="95.41" xlink:href="#D"/></g><use x="45" xlink:href="#G" y="206.513" class="B C"/><g transform="matrix(.1 0 0 -.1 22.096875 210.311747)"><use xlink:href="#E"/><use x="63.623" xlink:href="#H"/><use x="95.41" xlink:href="#C"/></g><use x="45" xlink:href="#G" y="155.633" class="B C"/><defs><path d="M33.016 40.375q-6.64 0-10.53-4.547-3.875-4.53-3.875-12.437 0-7.86 3.875-12.437 3.89-4.562 10.53-4.562 6.64 0 10.516 4.563 3.875 4.578 3.875 12.438 0 7.906-3.875 12.438-3.875 4.547-10.516 4.547zm19.578 30.922v-8.984q-3.72 1.75-7.5 2.672-3.78.938-7.5.938-9.766 0-14.922-6.594-5.14-6.594-5.875-19.922 2.875 4.25 7.22 6.516 4.36 2.266 9.578 2.266 10.984 0 17.36-6.672 6.375-6.656 6.375-18.125 0-11.234-6.64-18.03-6.64-6.78-17.672-6.78-12.656 0-19.344 9.688-6.687 9.703-6.687 28.11 0 17.28 8.203 27.563 8.203 10.28 22.016 10.28 3.72 0 7.5-.734 3.78-.734 7.89-2.187z" id="I"/></defs><g transform="matrix(.1 0 0 -.1 22.096875 159.43229)"><use xlink:href="#E"/><use x="63.623" xlink:href="#H"/><use x="95.41" xlink:href="#I"/></g><use x="45" xlink:href="#G" y="104.754" class="B C"/><defs><path d="M31.78 34.625q-7.03 0-11.062-3.766-4.016-3.766-4.016-10.344 0-6.594 4.016-10.36Q24.75 6.39 31.78 6.39q7.03 0 11.078 3.78 4.063 3.797 4.063 10.344 0 6.578-4.03 10.344-4.016 3.766-11.11 3.766zm-9.86 4.188q-6.344 1.563-9.89 5.906-3.53 4.36-3.53 10.61 0 8.734 6.22 13.813 6.234 5.078 17.063 5.078 10.89 0 17.094-5.078 6.203-5.078 6.203-13.812 0-6.25-3.547-10.61-3.53-4.344-9.828-5.906 7.125-1.656 11.094-6.5 3.984-4.828 3.984-11.797 0-10.61-6.47-16.28-6.47-5.656-18.53-5.656-12.047 0-18.53 5.656-6.47 5.672-6.47 16.28 0 6.97 4 11.797 4.016 4.844 11.14 6.5zm-3.61 15.578q0-5.656 3.53-8.828 3.547-3.172 9.938-3.172 6.36 0 9.938 3.172 3.594 3.172 3.594 8.828 0 5.672-3.594 8.844-3.578 3.172-9.937 3.172-6.39 0-9.937-3.172-3.53-3.172-3.53-8.844z" id="J"/></defs><g transform="matrix(.1 0 0 -.1 22.096875 108.552833)"><use xlink:href="#E"/><use x="63.623" xlink:href="#H"/><use x="95.41" xlink:href="#J"/></g><use x="45" xlink:href="#G" y="53.874" class="B C"/><defs><path d="M12.406 8.297h16.11v55.625l-17.53-3.516v8.984l17.438 3.516h9.86V8.297h16.11V0H12.406z" id="K"/></defs><g transform="matrix(.1 0 0 -.1 22.096875 57.673376)"><use xlink:href="#K"/><use x="63.623" xlink:href="#H"/><use x="95.41" xlink:href="#E"/></g><defs><path d="M32.172-5.078q-3.797-9.766-7.422-12.734-3.61-2.984-9.656-2.984H7.906v7.516h5.28q3.703 0 5.75 1.766Q21-9.766 23.484-3.22l1.61 4.094-22.11 53.813H12.5l17.094-42.766 17.094 42.766h9.516z" id="L"/></defs><use xlink:href="#L" transform="matrix(0 -.1 -.1 0 16.017187 184.032175)"/><g stroke-linecap="square" fill="none"><path clip-path="url(#M)" d="M57.682 306.57l2.562-.18 2.562-.198 2.562-.22 2.562-.242 2.562-.267 2.562-.295 2.562-.325 2.562-.36 2.562-.396 2.562-.437 2.562-.48 2.562-.53 2.562-.584 2.562-.643 2.562-.707 2.562-.778 2.562-.855 2.562-.94 2.562-1.03 2.562-1.13 2.562-1.238 2.562-1.355 2.562-1.48 2.562-1.617 2.562-1.764 2.562-1.92 2.562-2.09 2.562-2.267 2.562-2.457 2.562-2.657 2.562-2.868 2.562-3.088 2.562-3.317 2.562-3.553 2.562-3.796 2.562-4.043 2.562-4.292 2.562-4.54 2.562-4.788 2.562-5.028 2.562-5.26 2.562-5.48 2.562-5.683 2.562-5.868 2.562-6.03 2.562-6.168 2.562-6.278 2.562-6.358 2.562-6.406 5.124-12.83 2.562-6.358 2.562-6.278 2.562-6.168 2.562-6.03 2.562-5.868 2.562-5.683 2.562-5.48 2.562-5.26 2.562-5.028 2.562-4.788 2.562-4.54 2.562-4.292 2.562-4.043 2.562-3.796 2.562-3.553 2.562-3.317 2.562-3.088 2.562-2.868 2.562-2.657 2.562-2.457 2.562-2.267 2.562-2.088 2.562-1.92 2.562-1.764 2.562-1.617 2.562-1.48 2.562-1.355 2.562-1.238 2.562-1.13 2.562-1.03 2.562-.94 2.562-.855 2.562-.778 2.562-.707 2.562-.643 2.562-.584 2.562-.53 2.562-.48 2.562-.437 2.562-.396 2.562-.36 2.562-.325 2.562-.295 2.562-.267 2.562-.242 2.562-.22 2.562-.198 2.562-.18" stroke="#1f77b4" stroke-width="1.5"/><g stroke-linejoin="miter" class="B C"><path d="M45 319.118V43.027m279 276.09V43.027"/><path d="M45 319.118h279M45 43.027h279"/></g></g><defs><clipPath id="M"><path d="M45 43.027h279v276.09H45z"/></clipPath></defs></svg>
